X:1
T:D Major Oliver Holden, 1800
T:John Ogilvy, 1769 886. 886.
T:Psalm 148 No copyright. Transcribed from Plain Psalmody, 1800.
%%score [ 1 2 3 ]
L:1/8
M:2/4
K:D
V:1 treble nm="Treble" snm="Tr."
V:2 treble-8 nm="Tenor" snm="T."
V:3 bass nm="Bass" snm="B."
V:1
"^Moderato" D2 | F2 E2 | D3 F | AB/c/ dD | (F2 E)F | AF Ad | dA GF | (G2 F)A | B/A/G/F/ EF | %9
 G2 A2 | F4 | z2 d2 | dd AF | AF DA | dd BB | cc (c/B/c/d/ | e>)e fd | c2 B2 | A3 A | %19
 (B/d/c/e/de/f/ | g)f e d/c/ | d4 |] %22
V:2
 d2 | A2 A2 | A3 A | FG/A/ BA | A3 A | d2 f2 | fd BA | d3 d | (d2 c)A | e2 c2 | d4 | z2 A2 | %12
w: 1.~Be-|gin, my|soul, th'~ex-|al- * * * ted|lay, Let|each en-|rap- tured thought o-|bey, And|praise * th'~Al-|migh- ty|name.|Lo!|
 AA dd | dA FA | dd BB | ee (e/f/e/d/ | c>)c df | e2 d2 | c3 d | (d/f/e/g/fe/d/ | e)d AG | F4 |] %22
w: Heav'n and earth, and|seas and skies, In|one mel- o- dious|con- cert rise,~ * * *|* To swell th'~in-|spi- ring|theme, To|swell~ * * * * * *|* th'~in- spi- ring|theme.|
V:3
 D,2 | D,2 A,,2 | D,3 D, | D,2 D,2 | A,,3 D, | D,2 D,2 | D,D, D,D, | D,3 D, | G,/F,/E,/D,/ C,D, | %9
 A,,2 A,,2 | D,4 | z2 D,2 | D,D, D,D, | D,D, D,A, | DD B,B, | A,A, A,2- | A,>A, DD, | E,2 E,2 | %18
 A,,3 D, | G,4- | G,A, A,A, | D,4 |] %22

